account-minus-outline.svg

<svg  viewBox="0 0 24 24" fill="currentColor"><path  d="M15,4A4,4 0 0,0 11,8A4,4 0 0,0 15,12A4,4 0 0,0 19,8A4,4 0 0,0 15,4M15,5.9C16.16,5.9 17.1,6.84 17.1,8C17.1,9.16 16.16,10.1 15,10.1A2.1,2.1 0 0,1 12.9,8A2.1,2.1 0 0,1 15,5.9M1,10V12H9V10H1M15,13C12.33,13 7,14.33 7,17V20H23V17C23,14.33 17.67,13 15,13M15,14.9C17.97,14.9 21.1,16.36 21.1,17V18.1H8.9V17C8.9,16.36 12,14.9 15,14.9Z"/></svg>

<svg fill="currentColor" viewBox="0 0 24 24"><path d="M15 4a4 4 0 0 0-4 4 4 4 0 0 0 4 4 4 4 0 0 0 4-4 4 4 0 0 0-4-4m0 1.9a2.1 2.1 0 1 1 0 4.2A2.1 2.1 0 0 1 12.9 8 2.1 2.1 0 0 1 15 5.9M1 10v2h8v-2zm14 3c-2.67 0-8 1.33-8 4v3h16v-3c0-2.67-5.33-4-8-4m0 1.9c2.97 0 6.1 1.46 6.1 2.1v1.1H8.9V17c0-.64 3.1-2.1 6.1-2.1"/></svg>
